X: 3
T: The Dark Island
R: waltz
M: 3/4
L: 1/8
K: Dmaj
B|e3 B e2|d3 e d2|B3 A G2|A4 de|f3 e d2|f a3 A2|f3 a f2|e4 AB|
e3 B e2|d3 e d2|B3 A G2|A4 de|f3 Aaf|e3 Afe|d6|d4|]
fg|a3 f A2|f3 e d2|B G3 B2|A4 de|f3 e d2|f a3 A2|f3 a f2|e4 AB|
e3 B e2|d3 e d2|B3 A G2|A4 de|f3 Aaf|e3 Afe|d6|d4|]


Tune 4906	Setting 17331

